X: 11021
Q: "Very slow."
M: 3/4
L: 1/8
K: F
_e |\
d>c B3 c | dc _e2 dc | df c2 a2 | _b(a/g/) f2 zf |\
dc {B}A3 f | {d}cA {A}G3 _e | dB f2 zA | B(A/G/) F3 |]


